assets/logos/icons/globe.svg

<svg height="24" viewBox="0 0 24 24" width="24" xmlns="http://www.w3.org/2000/svg"><path d="m11.9999999 1.99999995c-5.49999995 0-9.99999995 4.5-9.99999995 9.99999995 0 5.5 4.5 10 9.99999995 10 5.5 0 10-4.5 10-10 0-5.49999995-4.5-9.99999995-10-9.99999995zm6.9000001 6.00000003h-1.4c-.3-1.00000001-.6-1.80000001-1-2.60000001 1 .7 1.8 1.6 2.4 2.60000001zm1.1 4.00000002c0 .7-.1 1.4-.3 2h-1.9c.1-.6.1-1.3.1-2s0-1.4-.1-2.00000001h1.9c.2.60000001.3 1.30000001.3 2.00000001zm-16.00000004 0c0-.7.1-1.4.3-2.00000001h1.90000001c-.2.60000001-.2 1.30000001-.20000001 2.00000001.00000001.7.00000001 1.4.10000001 2h-1.80000001c-.2-.6-.3-1.3-.3-2zm4.00000002 0c0-.7.1-1.4.1-2.00000001h2.90000002v4.00000001h-2.90000002c0-.6-.1-1.3-.1-2zm5.00000002-7.70000004c1 .6 1.9 1.90000001 2.4 3.70000002h-2.4zm-2 0v3.70000002h-2.40000002c.50000001-1.80000001 1.40000001-3.10000002 2.40000002-3.70000002zm0 11.70000004v3.7c-1.00000001-.6-1.90000001-1.9-2.40000002-3.7zm2 3.7v-3.7h2.4c-.5 1.8-1.4 3.1-2.4 3.7zm0-5.7v-4.00000001h2.9c.1.60000001.1 1.30000001.1 2.00000001s-.1 1.4-.1 2zm-5.50000002-8.60000003c-.4.8-.70000001 1.6-1.00000001 2.60000001h-1.4c.6-1.00000001 1.4-1.90000001 2.40000001-2.60000001zm-2.40000001 10.60000003h1.4c.3 1 .60000001 1.8 1.00000001 2.6-1.00000001-.7-1.80000001-1.6-2.40000001-2.6zm11.40000003 2.6c.4-.8.8-1.7 1-2.6h1.4c-.6 1-1.4 1.9-2.4 2.6z" fill="#492f5c" fill-rule="evenodd"/></svg>

<svg xmlns="http://www.w3.org/2000/svg" xmlns:xlink="http://www.w3.org/1999/xlink" width="24" height="24" viewBox="0 0 24 24">
  <defs>
    <path id="globe-a" d="M11.9999999,1.99999995 C6.49999995,1.99999995 1.99999995,6.49999995 1.99999995,11.9999999 C1.99999995,17.4999999 6.49999995,21.9999999 11.9999999,21.9999999 C17.4999999,21.9999999 21.9999999,17.4999999 21.9999999,11.9999999 C21.9999999,6.49999995 17.4999999,1.99999995 11.9999999,1.99999995 Z M18.9,7.99999998 L17.5,7.99999998 C17.2,6.99999997 16.9,6.19999997 16.5,5.39999997 C17.5,6.09999997 18.3,6.99999997 18.9,7.99999998 Z M20,12 C20,12.7 19.9,13.4 19.7,14 L17.8,14 C17.9,13.4 17.9,12.7 17.9,12 C17.9,11.3 17.9,10.6 17.8,9.99999999 L19.7,9.99999999 C19.9,10.6 20,11.3 20,12 Z M3.99999996,12 C3.99999996,11.3 4.09999996,10.6 4.29999996,9.99999999 L6.19999997,9.99999999 C5.99999997,10.6 5.99999997,11.3 5.99999996,12 C5.99999997,12.7 5.99999997,13.4 6.09999997,14 L4.29999996,14 C4.09999996,13.4 3.99999996,12.7 3.99999996,12 Z M7.99999998,12 C7.99999998,11.3 8.09999998,10.6 8.09999998,9.99999999 L11,9.99999999 L11,14 L8.09999998,14 C8.09999998,13.4 7.99999998,12.7 7.99999998,12 Z M13,4.29999996 C14,4.89999996 14.9,6.19999997 15.4,7.99999998 L13,7.99999998 L13,4.29999996 Z M11,4.29999996 L11,7.99999998 L8.59999998,7.99999998 C9.09999999,6.19999997 9.99999999,4.89999996 11,4.29999996 Z M11,16 L11,19.7 C9.99999999,19.1 9.09999999,17.8 8.59999998,16 L11,16 Z M13,19.7 L13,16 L15.4,16 C14.9,17.8 14,19.1 13,19.7 Z M13,14 L13,9.99999999 L15.9,9.99999999 C16,10.6 16,11.3 16,12 C16,12.7 15.9,13.4 15.9,14 L13,14 Z M7.49999998,5.39999997 C7.09999998,6.19999997 6.79999997,6.99999997 6.49999997,7.99999998 L5.09999997,7.99999998 C5.69999997,6.99999997 6.49999997,6.09999997 7.49999998,5.39999997 Z M5.09999997,16 L6.49999997,16 C6.79999997,17 7.09999998,17.8 7.49999998,18.6 C6.49999997,17.9 5.69999997,17 5.09999997,16 Z M16.5,18.6 C16.9,17.8 17.3,16.9 17.5,16 L18.9,16 C18.3,17 17.5,17.9 16.5,18.6 Z"/>
  </defs>
  <use fill="#492F5C" fill-rule="evenodd" xlink:href="#globe-a"/>
</svg>
